**kern	**kern	**dynam
*part1	*part1	*part1
*staff2	*staff1	*
*I"Piano	*	*
*clefF4	*clefG2	*
*k[f#]	*k[f#]	*
=1	=1	=1
8BB-XL 8B-X	8dL 8g	.
8BB- 8B-	8d 8g	.
8BB- 8B-	8d 8fn	.
8BB-J 8B-	8dJ 8f	.
=	=	=
8EE-XL 8E-X	8GL 8B-X 8fn	f
8EE- 8E-	8G 8B- 8f	.
8EE- 8E-	8G 8B- 8e-X	.
8EE-J 8E-	8GJ 8B- 8e-	.
=	=	=
8AA-XL 8E-X	8B-XL 8c-X 8e-X	.
8AA- 8E-	8B- 8c- 8e-	.
8AA- 8E-	8A-X 8c- 8e-	.
8AA-J 8E-	8A-J 8c- 8e-	.
=	=	=
8CC#XL 8C#X	8EnL 8G#X 8c#X 8en	.
8CC# 8C#	8E 8G# 8c# 8e	.
8CC# 8C#	8E 8G# 8c# 8e	.
8CC#J 8C#	8EJ 8G# 8c# 8e	.
=	=	=
8FF#XL 8C#X	8F#XL 8A 8c#X 8e	>
8FF# 8C#	8F# 8A 8c# 8e	.
8FF# 8C#	8F# 8A 8c# 8e	.
8FF#J 8C#	8F#J 8A 8c# 8e	.
=	=	=
8FF#L 8Cn	8F#L 8A 8cn 8e	]
8FF# 8C	8F# 8A 8c 8e	.
8FF# 8C	8F# 8A 8c 8e	.
8FF#J 8C	8F#J 8A 8c 8e	.
=	=	=
8BBBL 8C	8F#L 8A 8c 8e	.
8BBB 8C	8F# 8A 8c 8e	.
8BBB 8C	8F# 8A 8c 8e	.
8BBBJ 8C	8F#J 8A 8c 8e	.
=	=	=
*-	*-	*-
!!!system-decoration: {(s1,s2)}
